teeny/outline/volume-3.svg

<svg width="15" height="15" viewBox="0 0 15 15" fill="none" xmlns="http://www.w3.org/2000/svg">
<path d="M3.5 10.4941L3.75712 10.0653L3.63841 9.99413H3.5V10.4941ZM3.5 4.49804V4.99804H3.63841L3.75712 4.92686L3.5 4.49804ZM8.5 1.5H9C9 1.31989 8.90313 1.1537 8.74641 1.06494C8.58969 0.976173 8.39735 0.978558 8.24288 1.07118L8.5 1.5ZM8.5 13.4922L8.24288 13.921C8.39735 14.0136 8.58969 14.016 8.74641 13.9272C8.90313 13.8385 9 13.6723 9 13.4922H8.5ZM3.5 9.99413H1.5V10.9941H3.5V9.99413ZM1.5 9.99413C1.22351 9.99413 1 9.77065 1 9.49478H0C0 10.3242 0.672491 10.9941 1.5 10.9941V9.99413ZM1 9.49478V5.49739H0V9.49478H1ZM1 5.49739C1 5.22153 1.22351 4.99804 1.5 4.99804V3.99804C0.672491 3.99804 0 4.66798 0 5.49739H1ZM1.5 4.99804H3.5V3.99804H1.5V4.99804ZM3.75712 4.92686L8.75712 1.92882L8.24288 1.07118L3.24288 4.06922L3.75712 4.92686ZM8 1.5V13.4922H9V1.5H8ZM8.75712 13.0634L3.75712 10.0653L3.24288 10.923L8.24288 13.921L8.75712 13.0634ZM10 6V9H11V6H10ZM12 4V11H13V4H12ZM14 2V13H15V2H14Z" fill="black"/>
</svg>

<svg viewBox="0 0 15 15" xmlns="http://www.w3.org/2000/svg"><path d="M3.5 10.49l.25-.43 -.12-.08h-.14v.49Zm0-6v.5h.13l.11-.08 -.26-.43Zm5-3H9c0-.19-.1-.35-.26-.44 -.16-.09-.35-.09-.51 0l.25.42Zm0 11.99l-.26.42c.15.09.34.09.5 0 .15-.09.25-.26.25-.44h-.5Zm-5-3.5h-2v.99h2v-1Zm-2 0c-.28 0-.5-.23-.5-.5H0c0 .82.67 1.49 1.5 1.49v-1Zm-.5-.5v-4H0v3.99h1Zm0-4c0-.28.22-.5.5-.5v-1c-.83 0-1.5.66-1.5 1.49h1Zm.5-.5h2v-1h-2v1Zm2.25-.08l5-3 -.52-.86 -5 2.99 .51.85Zm4.24-3.43v11.99h1v-12h-1Zm.75 11.56l-5-3 -.52.85 5 2.99 .51-.86Zm1.24-7.07v3h1v-3h-1Zm2-2v7h1v-7h-1Zm2-2v11h1v-11h-1Z"/></svg>
